assets/icons/about_colored.svg

<svg fill="none" height="25" viewBox="0 0 24 25" width="24" xmlns="http://www.w3.org/2000/svg"><g fill="#000"><path d="m23.1065 10.7487c-.1528-1.2405-.5133-2.41915-1.0547-3.53421-.6936-1.4344-1.6727-2.70307-2.8737-3.72385-1.524-1.29997-3.2605-2.13135-5.2094-2.494123-.4071-.07612-.8203-.064075-1.2277-.113216h-1.5703c-.2423.039746-.4891.02168-.7312.053236-1.20523.157543-2.35366.528263-3.43788 1.085433-1.38887.7095-2.61824 1.70933-3.60938 2.93543-1.2789 1.57539-2.09359 3.37303-2.444056 5.3929-.066796.3816-.055312.7684-.106875 1.1502v1.7024c.038907.249.021329.5027.052032.7515.153279 1.2404.512809 2.4192 1.056089 3.5341.68994 1.4274 1.66244 2.6909 2.85516 3.7096 1.53375 1.3138 3.28289 2.1512 5.24741 2.5122.3713.0689.7477.0571 1.1189.1098h1.5703c.2715-.0404.5473-.0183.8185-.0534 1.207-.1566 2.3538-.5273 3.4387-1.084 1.3888-.7099 2.6181-1.7099 3.6094-2.9359 1.2789-1.5754 2.0938-3.3731 2.4445-5.393.0668-.3815.0554-.7684.1069-1.15v-1.6587c-.0401-.264-.0204-.5326-.0527-.7964zm-11.112 11.4628c-5.30624-.0034-9.59929-4.4255-9.58827-9.8763.01125-5.44687 4.30195-9.84688 9.59907-9.84327 5.3063.00362 9.5993 4.42555 9.5883 9.87627-.0113 5.4469-4.302 9.8469-9.5991 9.8433z"/><path d="m12.7829 10.857c-.0017-.3784-.1875-.6697-.4943-.7928-.5323-.21383-1.0676.1735-1.0711.7877-.0059 1.0823-.0017 2.1646-.0014 3.2469 0 1.0676-.0031 2.135.0011 3.2023.0024.595.47.9812.994.8316.3565-.1019.5714-.4156.5719-.8487.0014-1.4257.0014-2.8514 0-4.2771.0005-.7166.0031-1.4333-.0002-2.1499z"/><path d="m12.0073 6.53278c-.4067-.0053-.7552.33025-.7866.76867-.012.17078-.0019.34302-.0019.51453s-.0096.34374.0021.51453c.03.43745.3516.75349.7615.7612.4235.0077.7674-.30135.7938-.74675.0201-.3501.0201-.70112 0-1.05122-.0111-.20315-.0965-.39446-.2392-.53558-.1426-.14112-.3318-.22163-.5297-.22538z"/></g></svg>

<svg width="24" height="25" viewBox="0 0 24 25" fill="none" xmlns="http://www.w3.org/2000/svg">
<path d="M23.1065 10.7487C22.9537 9.5082 22.5932 8.32955 22.0518 7.21449C21.3582 5.78009 20.3791 4.51142 19.1781 3.49064C17.6541 2.19067 15.9176 1.35929 13.9687 0.996517C13.5616 0.920397 13.1484 0.932442 12.741 0.883301H11.1707C10.9284 0.923047 10.6816 0.904981 10.4395 0.936537C9.23427 1.09408 8.08584 1.4648 7.00162 2.02197C5.61275 2.73147 4.38338 3.7313 3.39224 4.9574C2.11334 6.53279 1.29865 8.33043 0.948184 10.3503C0.881388 10.7319 0.892872 11.1187 0.841309 11.5005V13.2029C0.880216 13.4519 0.862638 13.7056 0.893341 13.9544C1.04662 15.1948 1.40615 16.3736 1.94943 17.4885C2.63937 18.9159 3.61187 20.1794 4.80459 21.1981C6.33834 22.5119 8.08748 23.3493 10.052 23.7103C10.4233 23.7792 10.7997 23.7674 11.1709 23.8201H12.7412C13.0127 23.7797 13.2885 23.8018 13.5597 23.7667C14.7667 23.6101 15.9135 23.2394 16.9984 22.6827C18.3872 21.9728 19.6165 20.9728 20.6078 19.7468C21.8867 18.1714 22.7016 16.3737 23.0523 14.3538C23.1191 13.9723 23.1077 13.5854 23.1592 13.2038V11.5451C23.1191 11.2811 23.1388 11.0125 23.1065 10.7487ZM11.9945 22.2115C6.68826 22.2081 2.39521 17.786 2.40623 12.3352C2.41748 6.88833 6.70818 2.48832 12.0053 2.49193C17.3116 2.49555 21.6046 6.91748 21.5936 12.3682C21.5823 17.8151 17.2916 22.2151 11.9945 22.2115Z" fill="black"/>
<path d="M12.7829 10.857C12.7812 10.4786 12.5954 10.1873 12.2886 10.0642C11.7563 9.85037 11.221 10.2377 11.2175 10.8519C11.2116 11.9342 11.2158 13.0165 11.2161 14.0988C11.2161 15.1664 11.213 16.2338 11.2172 17.3011C11.2196 17.8961 11.6872 18.2823 12.2112 18.1327C12.5677 18.0308 12.7826 17.7171 12.7831 17.284C12.7845 15.8583 12.7845 14.4326 12.7831 13.0069C12.7836 12.2903 12.7862 11.5736 12.7829 10.857Z" fill="black"/>
<path d="M12.0073 6.53278C11.6006 6.52748 11.2521 6.86303 11.2207 7.30145C11.2087 7.47223 11.2188 7.64447 11.2188 7.81598C11.2188 7.98749 11.2092 8.15972 11.2209 8.33051C11.2509 8.76796 11.5725 9.084 11.9824 9.09171C12.4059 9.09941 12.7498 8.79036 12.7762 8.34496C12.7963 7.99486 12.7963 7.64384 12.7762 7.29374C12.7651 7.09059 12.6797 6.89928 12.537 6.75816C12.3944 6.61704 12.2052 6.53653 12.0073 6.53278Z" fill="black"/>
</svg>
